X:2863
T:Du kvitrende lerke
C:anon., words: Joh. D. Behrens
O:Norway
Z:Transcribed by Frank Nordberg - http://www.musicaviva.com
F:http://abc.musicaviva.com/tunes/norway/du-kvitrende-lerke/du-kvitrende-lerke-1.abc
M:3/4
L:1/4
K:G
G/B/|"G"ddB|"Em"GGB|"G/B"dd"C"e/c/|"D"A2:|A/B/|
w:Du_ kvit-ren-de ler-ke, min syn-gen-de venn, jeg_
"D"c>dc|"G"B>cA|"A"G>AG|"D"F2z|
w:hil-ser deg kj\aer-lig "vel-kom-men i-gjen!"
"D"DcA|"G/D"B>c"D7"A|"G"GHG2|zz|]
w:Du g\aar som v\aar-bud om da-ler.
W:
W:Du kvitrende lerke, min syngende venn,
W:jeg hilser deg kj\aerlig "velkommen igjen!"
W:Du g\aar som v\aarbud om daler.
W:
W:Jeg vet, n\aar du triller i gullgule sky,
W:vil dagene lenges og vinteren fly.
W:Du g\aar som v\aarbud om daler.
W:
W:Jeg vet, n\aar den klinger, din jublende r\ost,
W:vil alt om meg v\aakne til glede og lyst.
W:Du g\aar som v\aarbud om daler.
W:
W:
W:  From Musica Viva - http://www.musicaviva.com
W:  the Internet center for free sheet music downloads.

